assets/SVG/Body/Body3.svg

<svg xmlns="http://www.w3.org/2000/svg" xmlns:xlink="http://www.w3.org/1999/xlink" width="1072" height="1129" viewBox="0 0 1072 1129">
  <defs>
    <clipPath id="clip-path">
      <rect width="1072" height="1129" fill="none"/>
    </clipPath>
  </defs>
  <g id="Body3" transform="translate(-534 -6)">
    <path id="Kleidung3" d="M964.012,591H46.313a651.247,651.247,0,0,1,6.357-68.472A632.692,632.692,0,0,1,65.9,456.853a598.905,598.905,0,0,1,45.313-120.785A544.285,544.285,0,0,1,178.733,233a480.375,480.375,0,0,1,86.208-81H740.835a488.073,488.073,0,0,1,86.873,80.764,551.389,551.389,0,0,1,68.586,102.892A604.388,604.388,0,0,1,942.945,456.47a637.2,637.2,0,0,1,13.96,65.814A655.566,655.566,0,0,1,964.012,591Z" transform="translate(564 502)" fill="red"/>
    <g id="Subtraction_5" data-name="Subtraction 5" transform="translate(633 31.98)" fill="none">
      <path d="M627.5,880.02a29.257,29.257,0,0,1-17.321-5.978,44.879,44.879,0,0,1-7.559-7.014,62.145,62.145,0,0,1-6.586-9.29,91.273,91.273,0,0,1-9.537-24.182,123.458,123.458,0,0,1-3.5-29.613c0-1.979.045-3.979.134-5.943h88.732c.089,1.972.134,3.971.134,5.943a123.458,123.458,0,0,1-3.5,29.613,91.271,91.271,0,0,1-9.537,24.182,62.139,62.139,0,0,1-6.586,9.29,44.881,44.881,0,0,1-7.559,7.014A29.258,29.258,0,0,1,627.5,880.02Z" stroke="none"/>
      <path d="M 627.4998168945312 875.0201416015625 C 632.4336547851562 875.0201416015625 637.2758178710938 873.3277587890625 641.8917236328125 869.9900512695312 C 644.2166137695312 868.3089599609375 646.4738159179688 866.2110595703125 648.6005859375 863.7547607421875 C 650.7564086914062 861.2647705078125 652.7919311523438 858.3910522460938 654.650634765625 855.21337890625 C 658.49560546875 848.6402587890625 661.5233154296875 840.94970703125 663.6495971679688 832.3552856445312 C 665.8729858398438 823.368408203125 667.0003051757812 813.8092651367188 667.0003051757812 803.9432373046875 C 667.0003051757812 803.62939453125 666.9991455078125 803.31494140625 666.9967651367188 803.0003051757812 L 588.0037841796875 803.0003051757812 C 588.0014038085938 803.3150024414062 588.000244140625 803.6293334960938 588.000244140625 803.9432373046875 C 588.000244140625 813.8092651367188 589.1275634765625 823.368408203125 591.3509521484375 832.355224609375 C 593.4772338867188 840.9496459960938 596.5048828125 848.6401977539062 600.349853515625 855.2134399414062 C 602.208740234375 858.391357421875 604.2442016601562 861.2650756835938 606.3997192382812 863.7547607421875 C 608.5266723632812 866.2112426757812 610.7838134765625 868.30908203125 613.1084594726562 869.9900512695312 C 617.7242431640625 873.3277587890625 622.5662231445312 875.0201416015625 627.4998168945312 875.0201416015625 M 627.4998168945312 880.0201416015625 C 621.492431640625 880.0201416015625 615.6647338867188 878.0087890625 610.1786499023438 874.041748046875 C 607.5419311523438 872.1351318359375 604.9987182617188 869.7752075195312 602.6197509765625 867.027587890625 C 600.2633666992188 864.3059692382812 598.047607421875 861.1804809570312 596.033935546875 857.7379150390625 C 591.9472045898438 850.7513427734375 588.7385864257812 842.6153564453125 586.4972534179688 833.5560913085938 C 584.1768188476562 824.1768188476562 583.000244140625 814.2136840820312 583.000244140625 803.9432373046875 C 583.000244140625 801.9639892578125 583.0452270507812 799.9645385742188 583.134033203125 798.0003051757812 L 671.866455078125 798.0003051757812 C 671.9556274414062 799.9722290039062 672.0003051757812 801.9713134765625 672.0003051757812 803.9432373046875 C 672.0003051757812 814.2136840820312 670.82373046875 824.1768188476562 668.5032958984375 833.5560913085938 C 666.261962890625 842.6152954101562 663.0533447265625 850.7512817382812 658.9664916992188 857.7379150390625 C 656.952880859375 861.1804809570312 654.737060546875 864.305908203125 652.380615234375 867.027587890625 C 650.0016479492188 869.775146484375 647.4584350585938 872.135009765625 644.821533203125 874.041748046875 C 639.3352661132812 878.0087890625 633.5073852539062 880.0201416015625 627.4998168945312 880.0201416015625 Z" stroke="none" fill="#000000"/>
    </g>
    <g id="Holder" transform="translate(534 6)" opacity="0.002" clip-path="url(#clip-path)">
      <g id="Holder-2" data-name="Holder" fill="#1ae209" stroke="#707070" stroke-width="1" opacity="0.203">
        <rect width="1072" height="1129" stroke="none"/>
        <rect x="0.5" y="0.5" width="1071" height="1128" fill="none"/>
      </g>
    </g>
  </g>
</svg>

<?xml version="1.0" encoding="UTF-8" standalone="no"?>
<svg
   xmlns:dc="http://purl.org/dc/elements/1.1/"
   xmlns:cc="http://creativecommons.org/ns#"
   xmlns:rdf="http://www.w3.org/1999/02/22-rdf-syntax-ns#"
   xmlns:svg="http://www.w3.org/2000/svg"
   xmlns="http://www.w3.org/2000/svg"
   xmlns:sodipodi="http://sodipodi.sourceforge.net/DTD/sodipodi-0.dtd"
   xmlns:inkscape="http://www.inkscape.org/namespaces/inkscape"
   width="917.69897"
   height="439"
   viewBox="0 0 917.69897 439"
   version="1.1"
   id="svg20"
   sodipodi:docname="Body3.svg"
   inkscape:version="0.92.4 (5da689c313, 2019-01-14)">
  <metadata
     id="metadata24">
    <rdf:RDF>
      <cc:Work
         rdf:about="">
        <dc:format>image/svg+xml</dc:format>
        <dc:type
           rdf:resource="http://purl.org/dc/dcmitype/StillImage" />
      </cc:Work>
    </rdf:RDF>
  </metadata>
  <sodipodi:namedview
     pagecolor="#ffffff"
     bordercolor="#666666"
     borderopacity="1"
     objecttolerance="10"
     gridtolerance="10"
     guidetolerance="10"
     inkscape:pageopacity="0"
     inkscape:pageshadow="2"
     inkscape:window-width="1052"
     inkscape:window-height="563"
     id="namedview22"
     showgrid="false"
     inkscape:zoom="0.20903454"
     inkscape:cx="459.687"
     inkscape:cy="522.5"
     inkscape:window-x="0"
     inkscape:window-y="0"
     inkscape:window-maximized="0"
     inkscape:current-layer="svg20" />
  <defs
     id="defs5">
    <clipPath
       id="clip-path">
      <rect
         width="1072"
         height="1129"
         id="rect2"
         x="0"
         y="0"
         style="fill:none" />
    </clipPath>
  </defs>
  <path
     style="fill:#ff0000"
     inkscape:connector-curvature="0"
     d="M 917.699,439 H 0 A 651.247,651.247 0 0 1 6.357,370.528 632.692,632.692 0 0 1 19.587,304.853 598.905,598.905 0 0 1 64.9,184.068 544.285,544.285 0 0 1 132.42,81 480.375,480.375 0 0 1 218.628,0 h 475.894 a 488.073,488.073 0 0 1 86.873,80.764 551.389,551.389 0 0 1 68.586,102.892 604.388,604.388 0 0 1 46.651,120.814 637.2,637.2 0 0 1 13.96,65.814 655.566,655.566 0 0 1 7.107,68.716 z"
     id="Kleidung3" />
  <g
     style="fill:none"
     transform="translate(22.687,-622.02)"
     data-name="Subtraction 5"
     id="Subtraction_5">
    <path
       style="stroke:none"
       inkscape:connector-curvature="0"
       id="path8"
       d="m 627.5,880.02 a 29.257,29.257 0 0 1 -17.321,-5.978 44.879,44.879 0 0 1 -7.559,-7.014 62.145,62.145 0 0 1 -6.586,-9.29 91.273,91.273 0 0 1 -9.537,-24.182 123.458,123.458 0 0 1 -3.5,-29.613 c 0,-1.979 0.045,-3.979 0.134,-5.943 h 88.732 c 0.089,1.972 0.134,3.971 0.134,5.943 a 123.458,123.458 0 0 1 -3.5,29.613 91.271,91.271 0 0 1 -9.537,24.182 62.139,62.139 0 0 1 -6.586,9.29 44.881,44.881 0 0 1 -7.559,7.014 29.258,29.258 0 0 1 -17.315,5.978 z" />
    <path
       style="fill:#000000;stroke:none"
       inkscape:connector-curvature="0"
       id="path10"
       d="m 627.49982,875.02014 c 4.93383,0 9.776,-1.69238 14.3919,-5.03009 2.32489,-1.68109 4.5821,-3.77899 6.70887,-6.23529 2.15582,-2.48999 4.19134,-5.36371 6.05004,-8.54138 3.84498,-6.57312 6.87269,-14.26367 8.99897,-22.85809 2.22339,-8.98688 3.35071,-18.54602 3.35071,-28.41205 0,-0.31385 -10e-4,-0.6283 -0.004,-0.94293 h -78.99299 c -0.002,0.31469 -0.004,0.62902 -0.004,0.94293 0,9.86603 1.12732,19.42517 3.35071,28.41198 2.12628,8.59443 5.15393,16.28498 8.9989,22.85822 1.85889,3.17792 3.89435,6.05164 6.04987,8.54132 2.12695,2.45648 4.38409,4.55432 6.70874,6.23529 4.61578,3.33771 9.45776,5.03009 14.39136,5.03009 m 0,5 c -6.00739,0 -11.83509,-2.01135 -17.32117,-5.97839 -2.63672,-1.90662 -5.17993,-4.26654 -7.5589,-7.01416 -2.35638,-2.72162 -4.57214,-5.84711 -6.58581,-9.28967 -4.08674,-6.98658 -7.29535,-15.12256 -9.53669,-24.18183 -2.32043,-9.37927 -3.49701,-19.34241 -3.49701,-29.61285 0,-1.97925 0.045,-3.9787 0.13379,-5.94293 h 88.73243 c 0.0892,1.97192 0.13385,3.971 0.13385,5.94293 0,10.27044 -1.17658,20.23358 -3.49701,29.61285 -2.24134,9.05921 -5.44996,17.19519 -9.53681,24.18183 -2.01361,3.44256 -4.22943,6.56799 -6.58587,9.28967 -2.37897,2.74756 -4.92218,5.10742 -7.55909,7.01416 -5.48626,3.96704 -11.31414,5.97839 -17.32171,5.97839 z" />
  </g>
</svg>
